X: 130
T: Xiu hebao
L: 1/8
M: 2/4
K: C
d> e A3/ d/ [I:setbarnb 1]| 
c4 | 
d> c A3/ G/ | 
A> G z E | 
G4 | 
G> A c3/ e/ | 
d> c A3/ G/ | 
A> G z E | 
G4 | 
G> Ac2 | 
d> e d3/ c/ | 
E> G A3/ c/ | 
G> A G3/ E/ | 
D> E G3/ A/ | 
A> G E3/ D/ | 
CC2D | 
C4 | 
G3A | 
G> A G3/ E/ | 
D> E G3/ A/ | 
A> G E3/ D/ | 
cc2d | 
c4 |]

@@@ Tune index: 9004
